/* XPM */
static char *x[] = {
"18 20 3 1",
"B c #000000",
"F c #A03A10",
"G c #A03A10",
"BFFFFFFFFFFFFFFFFB",
"BFFFFFFFFFFFFFFFFB",
"BFFFFFFFFFFFFFFFFB",
"BFFFFFFFFFFFFFFFFB",
"BFFFFFFFFFFFFFFFFB",
"BFFFFFFFFFFFFFFFFB",
"BFFFFFFFFFFFFFFFFB",
"BFFFFFFFFFFFFFFFFB",
"BFFFFFFFFFFFFFFFFB",
"BFFFFFFFFFFFFFFFFB",
"BFFFFFFFFFFFFFFFFB",
"BFFFFFFFFFFFFFFFFB",
"BFFFFFFFFFFFFFFFFB",
"BFFFFFFFFFFFFFFFFB",
"BFFFFFFFFFFFFFFFFB",
"BFFFFFFFFFFFFFFFFB",
"BFFFFFFFFFFFFFFFFB",
"BFFFFFFFFFFFFFFFFB",
"BFFFFFFFFFFFFFFFFB",
"BFFFFFFFFFFFFFFFFB",
};
