/* XPM */
static char *x[] = {
"18 20 3 1",
"B c #000000",
"F c #FFC300",
"G c #000000",
"BFFFFFFFFFFFFFFFFB",
"BFFFFFFFFFFFFFFFFB",
"BFFFFFFFFFFFFFFFFB",
"BFFFFFFFFFFFFFFFFB",
"BFFFFFFFFFFFFFFFFB",
"BFFFFFFFFFFFFFFFFB",
"BFFFFFFFFFFFFFFFFB",
"BFFFFFFFFFFFFFFFFB",
"BFFFFFFFFFFFFFFFFB",
"BFFFFFFFFFFFFFFFFB",
"BFFFFFFFFFFFFFFFFB",
"BFFFFFFFFFFFFFFFFB",
"BFFFFFFFFFFFFFFFFB",
"BFFFFGGGGGGGGFFFFB",
"BFFFFGGGGGGGGFFFFB",
"BFFFFFFFFFFFFFFFFB",
"BFFFFFFFFFFFFFFFFB",
"BFFFFFFFFFFFFFFFFB",
"BFFFFFFFFFFFFFFFFB",
"BFFFFFFFFFFFFFFFFB",
};
