/* XPM */
static char *x[] = {
"18 20 3 1",
"B c #000000",
"F c #B5B5B5",
"G c #7A7A7A",
"BFFFFFFFFFFFFFFFFB",
"BFFFFFFFFFFFFFFFFB",
"BFFFFFFFFFFFFFFFFB",
"BFFFFFFFFFFFFFFFFB",
"BFFFFFFFFFFFFFFFFB",
"BFFFFFFFFFFFFFFFFB",
"BFFFFFFFFFFFFFFFFB",
"BFFFFFFFFFFFFFFFFB",
"BFFFFFFFGGFFFFFFFB",
"BFFFFFFFGGFFFFFFFB",
"BFFFFFFFGGFFFFFFFB",
"BFFFFFFFGGFFFFFFFB",
"BFFFFGGGGGGGGFFFFB",
"BFFFFGGGGGGGGFFFFB",
"BFFFFFFFGGFFFFFFFB",
"BFFFFFFFGGFFFFFFFB",
"BFFFFFFFGGFFFFFFFB",
"BFFFFFFFFFFFFFFFFB",
"BFFFFFFFFFFFFFFFFB",
"BFFFFFFFFFFFFFFFFB",
};
