/* XPM */
static char *x[] = {
"18 20 3 1",
"B c #000000",
"F c #C9960A",
"G c #C9960A",
"BFFFFFFFFFFFFFFFFB",
"BFFFFFFFFFFFFFFFFB",
"BFFFFFFFFFFFFFFFFB",
"BFFFFFFFFFFFFFFFFB",
"BFFFFFFFFFFFFFFFFB",
"BFFFFFFFFFFFFFFFFB",
"BFFFFFFFFFFFFFFFFB",
"BFFFFFFFFFFFFFFFFB",
"BFFFFFFFFFFFFFFFFB",
"BFFFFFFFFFFFFFFFFB",
"BFFFFFFFFFFFFFFFFB",
"BFFFFFFFFFFFFFFFFB",
"BFFFFFFFFFFFFFFFFB",
"BFFFFFFFFFFFFFFFFB",
"BFFFFFFFFFFFFFFFFB",
"BFFFFFFFFFFFFFFFFB",
"BFFFFFFFFFFFFFFFFB",
"BFFFFFFFFFFFFFFFFB",
"BFFFFFFFFFFFFFFFFB",
"BFFFFFFFFFFFFFFFFB",
};
