/* XPM */
static char *x[] = {
"18 20 3 1",
"B c #000000",
"F c #B5B5B5",
"G c #B5B5B5",
"BFFFFFFFFFFFFFFFFB",
"BFFFFFFFFFFFFFFFFB",
"BFFFFFFFFFFFFFFFFB",
"BFFFFFFFFFFFFFFFFB",
"BFFFFFFFFFFFFFFFFB",
"BFFFFFFFFFFFFFFFFB",
"BFFFFFFFFFFFFFFFFB",
"BFFFFFFFFFFFFFFFFB",
"BFFFFFFFFFFFFFFFFB",
"BFFFFFFFFFFFFFFFFB",
"BFFFFFFFFFFFFFFFFB",
"BFFFFFFFFFFFFFFFFB",
"BFFFFFFFFFFFFFFFFB",
"BFFFFFFFFFFFFFFFFB",
"BFFFFFFFFFFFFFFFFB",
"BFFFFFFFFFFFFFFFFB",
"BFFFFFFFFFFFFFFFFB",
"BFFFFFFFFFFFFFFFFB",
"BFFFFFFFFFFFFFFFFB",
"BFFFFFFFFFFFFFFFFB",
};
